X: 21172
T: SOUTH SHORE -- Hornpipe
R: hornpipe, reel
B: K\"ohler's Violin Repository, v.2, 1885 p.117 #2
F: http://www.archive.org/details/klersviolinrepos02rugg
Z: 2012 John Chambers <jc:trillian.mit.edu>
M: C|
L: 1/8
K: D
uA2 |\
d2fd (cd)Bc | ABGA FGEF | (DF)Ad (EG)Bd | Bege dcBA |\
d2fd (cd)Bc | ABAG FDFA | BGBd cAce | f2d2 d2 :|
z2 |\
vf2f2 (f/g/a) fd | g2g2 (g/a/b) ge | f2f2 (f/g/a) fd | (ed)cB Aceg |\
f2f2 (f/g/a) fd | g2g2 (g/a/b) ge | (f/g/a) fd (Bg)ec | d2f2 d2 ||
(uag) |\
(f/g/a) fd (fa)fd | (g/a/b) ge (gb)ge | (f/g/a) fd (fa)fd | edcB A2g2 |\
(f/g/a) fd (fa)fd | (g/a/b) ge (gb)ge | (fa)fd | (Bg)ec | d2f2 d2 :|

%%sep 2 1 500

